X:1
T:Springfield (Minshall), 77.77
T:Springfield (Minshall), 77.77
T:Edward Minshall, 1887
T:Public Domain Courtesy of the Cyber Hymnal™
C:Edward Minshall, 1887
Z:Public Domain
Z:Courtesy of the Cyber Hymnal™
%%score ( 1 2 ) ( 3 4 )
L:1/8
Q:1/4=108
M:4/4
K:Ab
V:1 treble 
V:2 treble 
V:3 bass 
V:4 bass 
V:1
 [CE]2 [DE]2 [Cc]2 [DB]2 | [EA]2 [FB]2 A2 G2 | [EG]2 [EA]2 [Ed]2 [Ec]2 | [Fc]2 [FB]2 [=Ec]4 | %4
 [Ec]2 [Ee]2 [Ad]2 [Gc]2 | F2 [FB]2 ([FA]2 [=EG]2) | [FA]2 [F=A]2 [B,B]2 [_CF]2 | %7
 [CA]2 [DB]2 [CA]4 |] %8
V:2
 x8 | x4 E4 | x8 | x8 | x8 | F2 x6 | x8 | x8 |] %8
V:3
 [A,,A,]2 [G,,B,]2 [A,,A,]2 [B,,G,]2 | [C,A,]2 [D,D]2 C2 B,2 | [D,B,]2 [C,A,]2 [B,,G,]2 [A,,A,]2 | %3
 [D,A,]2 [D,F,]2 [C,G,]4 | [A,C]2 [G,B,]2 (A,B,) [E,C]2 | [D,D]2 [B,,D]2 [C,C]4 | %6
 [F,C]2 [E,C]2 [D,B,]2 [=D,A,]2 | [E,A,]2 [E,G,]2 [A,,A,]4 |] %8
V:4
 x8 | x4 E,4 | x8 | x8 | x4 F,2 x2 | x8 | x8 | x8 |] %8

